dist/img/logo.svg

<svg width="94" height="42" viewBox="0 0 94 42" fill="none" xmlns="http://www.w3.org/2000/svg">
<path d="M17.8936 36.1877C15.599 36.1935 13.2692 35.6338 11.136 34.6102C9.00273 33.5837 7.0749 32.0758 5.52559 30.2315C3.97629 28.3872 2.81724 26.2008 2.15116 23.8665C1.81372 22.6979 1.61418 21.4887 1.52615 20.2766C1.44693 19.0615 1.49681 17.8407 1.66113 16.6344C1.83719 15.431 2.13355 14.2421 2.54729 13.0967C2.96983 11.9542 3.50093 10.8494 4.14941 9.81705C5.44343 7.7524 7.16586 5.96614 9.16998 4.61484C11.1712 3.26354 13.4452 2.34141 15.7839 1.93544C18.1196 1.53237 20.5169 1.63096 22.7205 2.26312C20.4289 2.27182 18.2105 2.61979 16.1536 3.34473C14.0996 4.06098 12.2099 5.1281 10.5872 6.4736C8.96752 7.822 7.606 9.44007 6.59661 11.2408C6.09191 12.1398 5.66351 13.0793 5.34073 14.0536C5.00622 15.0251 4.76855 16.0255 4.6277 17.0433C4.47805 18.0582 4.4311 19.0876 4.47805 20.1113C4.5162 21.1378 4.66585 22.1556 4.89766 23.1589C5.36714 25.1656 6.22102 27.0939 7.40354 28.8309C8.58606 30.5679 10.106 32.1106 11.8813 33.3575C13.6536 34.616 15.6929 35.5555 17.8936 36.1877Z" fill="#004A98"/>
<path d="M23.9939 6.09086C26.2885 6.08507 28.6183 6.64472 30.7516 7.66835C32.8848 8.69487 34.8126 10.2028 36.3619 12.047C37.9112 13.8913 39.0703 16.0777 39.7364 18.412C40.0738 19.5806 40.2733 20.787 40.3614 21.9991C40.4406 23.2141 40.3907 24.4349 40.2264 25.6412C40.0503 26.8446 39.754 28.0335 39.3402 29.1789C38.9177 30.3214 38.3866 31.4263 37.7381 32.4586C36.4441 34.5232 34.7217 36.3095 32.7175 37.6608C30.7164 39.0121 28.4423 39.9342 26.1037 40.3402C23.768 40.7432 21.3706 40.6447 19.167 40.0125C21.4587 40.0038 23.677 39.6558 25.7339 38.9309C27.7879 38.2146 29.6776 37.1475 31.3003 35.802C32.92 34.4536 34.2815 32.8355 35.2909 31.0348C35.7956 30.1358 36.224 29.1963 36.5468 28.222C36.8813 27.2506 37.119 26.2501 37.2598 25.2323C37.4095 24.2174 37.4564 23.188 37.4095 22.1644C37.3713 21.1378 37.2217 20.12 36.9899 19.1167C36.5204 17.11 35.6665 15.1817 34.484 13.4447C33.3015 11.7077 31.7815 10.1651 30.0063 8.91815C28.231 7.66255 26.1946 6.72302 23.9939 6.09086Z" fill="#1A5632"/>
<path d="M5.48735 18.0872C5.48148 15.8195 6.0478 13.5171 7.0836 11.409C8.12234 9.30084 9.64817 7.39568 11.5144 5.8646C13.3806 4.33351 15.593 3.1881 17.9551 2.52985C19.1377 2.19637 20.3583 1.99919 21.5849 1.9122C22.8143 1.8339 24.0497 1.8832 25.2703 2.04559C26.4881 2.21957 27.6911 2.51245 28.8502 2.92132C30.0063 3.33889 31.1242 3.86375 32.1689 4.5046C34.2581 5.7834 36.0656 7.48557 37.433 9.46613C38.8004 11.4438 39.7335 13.6911 40.1443 16.0022C40.5521 18.3105 40.4524 20.6796 39.8127 22.8573C39.8039 20.5926 39.4518 18.4004 38.7182 16.3676C37.9934 14.3378 36.9136 12.4703 35.5521 10.8667C34.1876 9.26604 32.5503 7.92054 30.7281 6.92302C29.8185 6.42425 28.8678 6.00089 27.8819 5.68191C26.8989 5.35134 25.8865 5.11645 24.8566 4.97726C23.8296 4.82938 22.7879 4.78298 21.7521 4.82938C20.7134 4.86707 19.6834 5.01496 18.6682 5.24404C16.6377 5.70801 14.6864 6.55185 12.9287 7.72046C11.1711 8.88907 9.61003 10.3912 8.34828 12.1455C7.0748 13.8999 6.12703 15.9123 5.48735 18.0872Z" fill="#0071CE"/>
<path d="M21.6667 37.4722L21.3557 31.3392C21.3557 31.3392 21.5376 30.5881 22.3094 31.1507C23.084 31.7132 23.7413 31.8785 24.2254 31.8756C24.7096 31.8756 24.8945 31.893 24.8945 31.3885C24.8945 30.8839 24.1609 30.9825 23.9291 30.8897C23.6973 30.7969 23.2366 30.3938 23.797 30.3677C24.3575 30.3387 24.9561 30.3416 25.4197 30.3677C25.8833 30.3938 26.2384 30.1706 25.6398 29.8748C25.0412 29.579 23.9232 29.0686 24.8358 28.9874C25.7483 28.9063 27.5001 29.1121 28.847 29.4601C30.1938 29.8081 30.9508 29.0309 30.5342 28.8541C30.1175 28.6772 28.7472 28.4858 28.9995 28.219C29.2519 27.9522 30.2584 27.639 30.1615 27.0678C30.0647 26.4965 29.9268 26.6241 29.3282 26.5719C28.7296 26.5197 28.1779 26.4704 28.4156 26.1283C28.6533 25.7832 28.9614 25.5599 28.8382 25.2322C28.7149 24.9046 27.8933 24.8698 27.3915 25.2322C26.8898 25.5947 26.2648 25.4178 25.8276 25.6556C25.3904 25.8934 24.8182 25.7165 25.408 25.1162C25.9978 24.516 25.9303 24.2811 26.8428 24.2608C27.7554 24.2405 29.0817 24.5189 29.0025 23.7765C28.9232 23.0342 26.6726 23.2488 26.2061 23.3619C25.7395 23.475 24.9796 23.8026 24.0993 23.8635C23.219 23.9244 22.5441 23.8084 22.7788 23.4373C23.0136 23.0661 23.3129 22.9849 24.1756 22.9849C25.0382 22.9849 25.7718 22.8747 26.7372 22.6282C27.7026 22.3817 28.9467 21.8772 29.0993 21.2653C29.2519 20.6535 28.844 20.3229 28.2865 20.2997C27.729 20.2765 26.9338 20.3171 27.1832 19.8009C27.4356 19.2848 27.5031 19.0151 27.1832 18.9426C26.8634 18.8701 26.3645 19.3892 25.9039 19.5052C25.4432 19.6241 24.1257 20.0851 23.8792 19.9227C23.6327 19.7603 23.6269 19.3921 24.1169 19.3196C24.6069 19.2471 25.7483 18.9832 25.9332 18.6613C26.1181 18.3395 26.4174 17.7044 25.9215 17.5478C25.4256 17.3912 24.6949 17.1679 24.0494 17.5478C23.4038 17.9277 22.6028 18.3511 22.324 18.093C22.0453 17.8349 22.3651 17.3854 22.8346 17.0809C23.3041 16.7765 24.8886 16.6112 25.3199 16.4865C25.7513 16.3618 26.655 15.979 26.611 15.7963C26.5641 15.6137 26.9778 14.9293 26.0741 14.8162C25.1674 14.706 25.1996 14.5755 24.5042 14.6944C23.8088 14.8133 23.1515 14.6277 22.6615 15.0047C22.1714 15.3817 21.7988 16.2603 21.4672 16.3096C21.1327 16.3589 21.0887 15.776 21.4672 15.3643C21.8457 14.9554 22.1304 14.5378 22.1802 14.2885C22.2301 14.0391 22.682 14.0014 23.0107 14.0507C23.3393 14.1 23.7736 14.1145 23.9262 13.7926C24.0787 13.4736 23.8234 12.8531 23.9848 12.4268C24.1462 12.0005 24.199 11.728 24.0494 11.5482C23.8997 11.3684 23.7824 11.8062 23.5447 11.3916C23.307 10.9769 23.351 10.8348 23.0165 10.8116C22.682 10.7884 22.547 11.0842 22.1069 11.0494C21.6667 11.0146 20.6603 11.9541 20.6603 11.9541L20.7014 10.5651C20.7014 10.5651 21.3704 10.2723 21.4027 9.95329C21.4349 9.63431 21.0359 8.93257 20.7777 8.79918C20.5194 8.66579 19.7712 8.74118 19.4602 9.46323C19.1491 10.1853 19.8093 10.7362 19.912 10.7884C20.0147 10.8377 20.0294 12.5834 20.0294 12.5834C20.0294 12.5834 19.4455 12.1745 19.378 11.8874C19.3105 11.6004 19.3017 11.2147 18.844 11.3423C18.3862 11.467 18.2571 11.986 18.0634 12.1339C17.8698 12.2818 17.77 13.2126 17.1831 13.3083C16.5934 13.404 16.3058 13.5751 15.9507 13.8013C15.5957 14.0275 15.0881 14.6103 14.6303 14.6103C14.1726 14.6103 13.3363 14.8046 13.26 15.3295C13.1837 15.8572 13.3656 16.5387 14.3281 16.211C15.2905 15.8833 16.3469 15.6311 16.8574 15.8369C17.3651 16.0428 18.0224 16.4169 18.5769 16.8171C19.1286 17.2172 19.9326 17.8958 19.3457 18.1336C18.7589 18.3685 17.7935 17.919 16.9866 17.7798C16.1796 17.6406 15.7248 17.4637 14.8357 17.6406C13.9466 17.8175 12.8639 17.6928 12.8081 18.2061C12.7524 18.7193 13.794 18.5917 14.1491 18.6816C14.5041 18.7715 15.091 19.1717 15.7453 19.3225C16.4026 19.4733 16.8105 19.1079 17.1861 19.3718C17.5617 19.6357 17.8082 20.0213 18.2806 20.0996C18.7559 20.1779 19.6157 20.3258 19.7242 20.5259C19.8328 20.726 19.9091 21.1203 19.2372 21.0623C18.5652 21.0015 17.1362 20.4882 16.5347 20.5259C15.9331 20.5636 14.0376 20.5143 13.4713 20.6448C12.905 20.7753 12.1861 20.9638 12.3944 21.4712C12.5998 21.9787 13.6151 22.028 13.8967 22.0541C14.1755 22.0802 14.1755 22.3122 14.5452 22.6949C14.912 23.0777 15.0734 23.272 15.3844 23.4315C15.6955 23.5939 15.9713 23.9128 16.4848 24.1564C16.9983 24.4029 17.4179 24.7654 17.4678 25.0176C17.5177 25.2699 17.3475 25.5396 16.7371 25.3134C16.1268 25.0872 15.3404 24.8379 15.0617 24.8872C14.7829 24.9365 14.3251 25.238 14.5276 25.6904C14.7301 26.1428 15.5693 26.0152 15.9243 26.1428C16.2794 26.2675 16.699 26.4066 17.2888 26.5922C17.8786 26.7778 18.2248 26.6937 18.4566 26.8938C18.6914 27.0939 19.0112 27.2708 18.6239 27.497C18.2366 27.7231 17.5235 28.1755 16.966 27.7724C16.4085 27.3723 16.0505 26.6734 15.493 26.5342C14.9355 26.3921 13.5652 26.1167 12.9314 26.1689C12.2976 26.2182 12.0423 26.6966 12.1186 27.0475C12.1949 27.3984 12.6526 27.6506 13.3128 27.5984C13.973 27.5492 14.6391 28.045 14.912 28.1001C15.1878 28.1552 15.0235 28.3959 15.5781 28.7004C16.1327 29.0048 16.5963 29.2455 16.9425 29.434C17.2888 29.6254 18.2072 29.6602 18.0576 30.0459C17.9079 30.4315 17.1215 30.2054 16.9689 30.2575C16.8164 30.3068 16.0036 30.0749 15.5986 30.1271C15.1937 30.1822 14.598 31.0318 14.0699 30.6838C13.5417 30.3329 13.2893 30.1242 13.0106 30.1648C12.7318 30.2054 12.4325 30.8143 13.3656 31.4117C14.2987 32.0061 14.7095 32.415 15.7365 32.2265C16.7665 32.038 16.4995 31.5625 17.3563 31.6117C18.2131 31.661 18.4097 31.922 18.7706 31.6175C19.1315 31.3131 19.6069 31.6639 19.5893 32.1917C19.5775 32.5397 19.4778 35.6105 19.4132 37.6433C19.5981 37.6404 19.7829 37.6404 19.9678 37.6317C20.537 37.6114 21.1034 37.5534 21.6667 37.4722Z" fill="#242424"/>
<path d="M33.3717 30.3155C32.1071 32.0699 30.5489 33.572 28.7913 34.7406C27.0337 35.9092 25.0824 36.7531 23.0518 37.217C22.5941 37.3214 22.1334 37.4055 21.6668 37.4722C21.1035 37.5534 20.5371 37.6114 19.9679 37.6317C19.783 37.6404 19.5982 37.6404 19.4133 37.6433C18.5624 37.6549 17.7085 37.6056 16.8634 37.4838C15.8335 37.3446 14.8211 37.1068 13.8382 36.7792C12.8522 36.4602 11.9015 36.0368 10.9919 35.5381C9.1697 34.5405 7.53237 33.195 6.16792 31.5944C4.80348 29.9908 3.72659 28.1233 3.00182 26.0935C2.27119 24.0607 1.91907 21.8685 1.90733 19.6038C1.26766 21.7815 1.16789 24.1506 1.57576 26.4588C1.98656 28.77 2.91966 31.0173 4.28704 32.9949C5.65149 34.9755 7.46195 36.6777 9.55116 37.9565C10.5958 38.5973 11.7137 39.1193 12.8698 39.5398C14.0318 39.9486 15.2319 40.2386 16.4497 40.4155C17.6703 40.5779 18.9057 40.6272 20.1351 40.5489C21.3617 40.4619 22.5853 40.2647 23.7649 39.9312C26.1299 39.273 28.3394 38.1276 30.2056 36.5965C32.0718 35.0654 33.5977 33.1631 34.6364 31.0521C35.6752 28.944 36.2385 26.6415 36.2327 24.3739C35.5901 26.5458 34.6423 28.5612 33.3717 30.3155Z" fill="#439539"/>
<path d="M44.4453 26.4456L47.2769 26.202C47.4119 27.3242 47.7229 28.2434 48.2129 28.9626C48.703 29.6817 49.4629 30.2617 50.4958 30.7054C51.5258 31.149 52.6877 31.3694 53.9788 31.3694C55.1232 31.3694 56.1355 31.2012 57.0129 30.8648C57.8902 30.5285 58.5416 30.0674 58.9701 29.4817C59.3985 28.8959 59.6127 28.255 59.6127 27.562C59.6127 26.8573 59.4073 26.2455 58.9935 25.7206C58.5798 25.1958 57.899 24.755 56.9513 24.3983C56.3409 24.1635 54.997 23.801 52.9137 23.3051C50.8303 22.8093 49.3691 22.3453 48.5357 21.9045C47.453 21.3449 46.646 20.6489 46.1149 19.8167C45.5838 18.9844 45.3168 18.0565 45.3168 17.0271C45.3168 15.8962 45.6425 14.8378 46.291 13.8547C46.9395 12.8717 47.8902 12.1236 49.1372 11.6132C50.3843 11.1028 51.7722 10.8477 53.301 10.8477C54.9823 10.8477 56.4642 11.1144 57.7494 11.6509C59.0346 12.1874 60.0205 12.9732 60.713 14.0142C61.4026 15.0552 61.7752 16.2325 61.8281 17.5462L58.9495 17.7607C58.794 16.3427 58.2717 15.2727 57.3797 14.5507C56.4876 13.8257 55.1701 13.4662 53.4272 13.4662C51.6109 13.4662 50.2875 13.7938 49.4571 14.4521C48.6267 15.1103 48.2129 15.902 48.2129 16.8299C48.2129 17.636 48.5064 18.2972 49.0962 18.8192C49.6742 19.3382 51.1824 19.8718 53.6208 20.4169C56.0592 20.9621 57.7347 21.4406 58.6414 21.8465C59.9618 22.4497 60.936 23.2094 61.5669 24.1316C62.1948 25.0537 62.5117 26.1179 62.5117 27.3213C62.5117 28.5131 62.1655 29.6382 61.4759 30.6938C60.7834 31.7493 59.7917 32.5699 58.4976 33.1557C57.2036 33.7414 55.7453 34.0343 54.1255 34.0343C52.0715 34.0343 50.352 33.7385 48.9641 33.147C47.5762 32.5554 46.4876 31.6652 45.6983 30.4792C44.9031 29.2874 44.4864 27.9448 44.4453 26.4456Z" fill="#242424" stroke="#242424" stroke-width="1.65" stroke-miterlimit="10"/>
<path d="M65.373 33.6475V11.2292H68.3748V33.6475H65.373Z" fill="#242424" stroke="#242424" stroke-width="1.65" stroke-miterlimit="10"/>
<path d="M83.0139 24.8552V22.2251L92.6237 22.2106V30.5301C91.1478 31.6929 89.6278 32.5658 88.058 33.1515C86.4911 33.7373 84.8801 34.0302 83.2311 34.0302C81.0039 34.0302 78.9793 33.5575 77.1571 32.6151C75.3349 31.6726 73.9616 30.3097 73.0344 28.5235C72.1072 26.7401 71.6406 24.7451 71.6406 22.5441C71.6406 20.3635 72.1013 18.3249 73.0256 16.4343C73.9499 14.5436 75.2762 13.1401 77.0104 12.2209C78.7445 11.3017 80.7399 10.8435 82.9993 10.8435C84.6395 10.8435 86.1213 11.1074 87.4476 11.6322C88.7739 12.1571 89.8127 12.8879 90.5668 13.8274C91.3209 14.7669 91.8931 15.9877 92.2834 17.4985L89.575 18.2321C89.2346 17.0896 88.8121 16.1936 88.3074 15.5412C87.8027 14.8887 87.0809 14.3667 86.1419 13.9724C85.2029 13.5809 84.1612 13.3837 83.0169 13.3837C81.6436 13.3837 80.4582 13.5896 79.4576 14.0043C78.457 14.416 77.6501 14.9612 77.0368 15.6339C76.4235 16.3067 75.9452 17.0461 75.6049 17.8523C75.0268 19.2384 74.7392 20.7434 74.7392 22.3643C74.7392 24.3623 75.0884 26.0355 75.7838 27.381C76.4793 28.7265 77.4945 29.7269 78.8238 30.3793C80.1559 31.0318 81.5673 31.3595 83.0638 31.3595C84.3637 31.3595 85.6313 31.113 86.8696 30.6171C88.1079 30.1213 89.0468 29.5964 89.6865 29.0338V24.8581H83.0139V24.8552Z" fill="#242424" stroke="#242424" stroke-width="1.65" stroke-miterlimit="10"/>
</svg>

<svg width="94" height="42" fill="none" xmlns="http://www.w3.org/2000/svg"><path d="M17.894 36.188c-2.295.005-4.625-.554-6.758-1.578a17.004 17.004 0 01-5.61-4.378 17.32 17.32 0 01-3.375-6.366 17.53 17.53 0 01-.625-3.59c-.08-1.215-.03-2.435.135-3.642a18.21 18.21 0 01.886-3.537 17.715 17.715 0 011.602-3.28A17.502 17.502 0 019.17 4.615a17.113 17.113 0 016.614-2.68c2.336-.403 4.733-.304 6.937.328-2.292.009-4.51.357-6.567 1.082a18.028 18.028 0 00-5.567 3.129 17.132 17.132 0 00-3.99 4.767 16.108 16.108 0 00-1.256 2.813 15.852 15.852 0 00-.713 2.99c-.15 1.014-.197 2.044-.15 3.067a16.18 16.18 0 00.42 3.048 16.98 16.98 0 002.506 5.672 17.782 17.782 0 004.477 4.527c1.773 1.258 3.812 2.198 6.013 2.83z" fill="#004A98"/><path d="M23.994 6.09c2.294-.005 4.624.555 6.758 1.578a17.006 17.006 0 015.61 4.379 17.32 17.32 0 013.374 6.365 17.51 17.51 0 01.625 3.587c.08 1.215.03 2.436-.135 3.642a18.166 18.166 0 01-.886 3.538 17.71 17.71 0 01-1.602 3.28 17.501 17.501 0 01-5.02 5.202 17.113 17.113 0 01-6.614 2.68c-2.336.402-4.733.304-6.937-.328 2.292-.01 4.51-.357 6.567-1.082a18.03 18.03 0 005.566-3.129 17.132 17.132 0 003.99-4.767 16.11 16.11 0 001.257-2.813c.334-.971.572-1.972.713-2.99.15-1.015.196-2.044.15-3.068a16.218 16.218 0 00-.42-3.047 16.98 16.98 0 00-2.506-5.672 17.784 17.784 0 00-4.478-4.527c-1.775-1.255-3.811-2.195-6.012-2.827z" fill="#1A5632"/><path d="M5.487 18.087c-.006-2.268.56-4.57 1.597-6.678 1.038-2.108 2.564-4.013 4.43-5.544a17.668 17.668 0 016.441-3.335 18.096 18.096 0 013.63-.618 18.867 18.867 0 013.685.134c1.218.174 2.421.466 3.58.875 1.156.418 2.274.943 3.319 1.584a17.531 17.531 0 015.264 4.961 16.692 16.692 0 012.711 6.536c.408 2.309.308 4.678-.331 6.855-.01-2.264-.361-4.457-1.095-6.49a17.709 17.709 0 00-3.166-5.5 17.245 17.245 0 00-4.824-3.944c-.91-.499-1.86-.922-2.846-1.241a16.361 16.361 0 00-3.025-.705c-1.027-.148-2.07-.194-3.105-.148a16.775 16.775 0 00-3.084.415 17.391 17.391 0 00-5.74 2.476 17.8 17.8 0 00-4.58 4.426c-1.273 1.754-2.221 3.766-2.86 5.941z" fill="#0071CE"/><path d="M21.667 37.472l-.311-6.133s.182-.75.953-.188c.775.562 1.432.727 1.916.725.485 0 .67.017.67-.488 0-.504-.734-.405-.966-.498-.232-.093-.692-.496-.132-.522.56-.03 1.16-.026 1.623 0 .463.026.818-.197.22-.493-.599-.296-1.717-.806-.804-.888.912-.08 2.664.125 4.011.473s2.104-.43 1.687-.606c-.416-.177-1.787-.368-1.534-.635.252-.267 1.258-.58 1.162-1.151-.097-.572-.235-.444-.834-.496-.598-.052-1.15-.102-.912-.444.237-.345.545-.568.422-.896-.123-.327-.945-.362-1.447 0-.501.363-1.126.186-1.563.424-.438.237-1.01.06-.42-.54.59-.6.522-.835 1.435-.855.912-.02 2.239.258 2.16-.485-.08-.742-2.33-.527-2.797-.414-.466.113-1.226.44-2.107.502-.88.06-1.555-.056-1.32-.427.235-.37.534-.452 1.397-.452.862 0 1.596-.11 2.561-.357.966-.246 2.21-.75 2.362-1.363.153-.611-.255-.942-.813-.965-.557-.024-1.352.017-1.103-.5.253-.515.32-.785 0-.857-.32-.073-.819.446-1.28.562-.46.12-1.777.58-2.024.418-.246-.163-.252-.53.238-.603.49-.073 1.631-.337 1.816-.659.185-.322.484-.957-.011-1.113-.496-.157-1.227-.38-1.873 0-.645.38-1.446.803-1.725.545-.279-.258.041-.708.51-1.012.47-.305 2.055-.47 2.486-.595.431-.124 1.335-.507 1.291-.69-.047-.182.367-.867-.537-.98-.907-.11-.874-.24-1.57-.122-.695.12-1.353-.066-1.843.31-.49.378-.862 1.256-1.194 1.306-.334.049-.378-.534 0-.946.379-.409.663-.826.713-1.075.05-.25.502-.288.83-.238.33.049.764.063.916-.258.153-.32-.103-.94.059-1.366.161-.426.214-.699.064-.879-.15-.18-.267.258-.504-.156-.238-.415-.194-.557-.529-.58-.334-.024-.469.272-.91.237-.44-.034-1.446.905-1.446.905l.041-1.389s.67-.293.702-.612c.032-.319-.367-1.02-.625-1.154-.259-.133-1.007-.058-1.318.664-.31.722.35 1.273.452 1.325.103.05.117 1.795.117 1.795s-.584-.409-.651-.696c-.067-.287-.076-.672-.534-.545-.458.125-.587.644-.78.792-.194.148-.294 1.079-.88 1.174-.59.096-.878.267-1.233.493-.355.226-.863.81-1.32.81-.458 0-1.295.194-1.371.718-.076.528.106 1.21 1.068.882.963-.328 2.019-.58 2.53-.374.507.206 1.164.58 1.719.98.552.4 1.356 1.079.769 1.317-.587.235-1.552-.215-2.36-.354-.806-.14-1.261-.316-2.15-.14-.89.177-1.972.053-2.028.566-.056.513.986.386 1.341.476.355.09.942.49 1.596.64.658.151 1.066-.214 1.441.05.376.264.622.65 1.095.728.475.078 1.335.226 1.443.426.109.2.185.594-.487.536-.672-.06-2.1-.574-2.702-.536-.602.038-2.497-.012-3.064.119-.566.13-1.285.319-1.077.826.206.508 1.221.557 1.503.583.278.026.278.258.648.64.367.384.528.578.84.738.31.162.586.48 1.1.724.513.247.933.61.983.862.05.252-.12.522-.73.295-.611-.226-1.398-.475-1.676-.426-.28.05-.737.351-.534.803.202.453 1.041.325 1.396.453.355.124.775.264 1.365.45.59.185.936.1 1.168.3.234.2.554.378.167.604-.387.226-1.1.678-1.658.275-.558-.4-.916-1.099-1.473-1.238-.558-.142-1.928-.417-2.562-.365-.633.05-.889.528-.812.878.076.351.534.604 1.194.551.66-.049 1.326.447 1.599.502.276.055.111.296.666.6.555.305 1.018.546 1.364.734.347.191 1.265.226 1.116.612-.15.386-.936.16-1.09.212-.152.049-.964-.183-1.37-.13-.404.054-1 .904-1.528.556-.528-.351-.78-.56-1.06-.52-.278.041-.578.65.356 1.248.933.594 1.344 1.003 2.37.815 1.03-.189.764-.664 1.62-.615.857.049 1.054.31 1.415.006.36-.305.836.046.818.574l-.176 5.451c.185-.003.37-.003.555-.011.569-.02 1.135-.079 1.699-.16z" fill="#242424"/><path d="M33.372 30.316a17.843 17.843 0 01-4.58 4.425 17.388 17.388 0 01-5.74 2.476c-.458.104-.919.189-1.385.255-.564.081-1.13.14-1.7.16-.184.008-.369.008-.554.011-.85.012-1.704-.037-2.55-.16a16.601 16.601 0 01-3.025-.704 16.496 16.496 0 01-2.846-1.24 17.247 17.247 0 01-4.824-3.945 17.65 17.65 0 01-3.166-5.5c-.73-2.033-1.083-4.226-1.095-6.49-.64 2.178-.74 4.547-.331 6.855a16.691 16.691 0 002.711 6.536 17.496 17.496 0 005.264 4.962 18.305 18.305 0 003.319 1.583c1.162.409 2.362.699 3.58.876 1.22.162 2.456.211 3.685.133a18.059 18.059 0 003.63-.618 17.644 17.644 0 006.44-3.334c1.867-1.532 3.393-3.434 4.431-5.545 1.04-2.108 1.602-4.41 1.597-6.678-.643 2.172-1.59 4.187-2.861 5.942z" fill="#439539"/><path d="M44.445 26.446l2.832-.244c.135 1.122.446 2.041.936 2.76.49.72 1.25 1.3 2.283 1.743 1.03.444 2.192.664 3.483.664 1.144 0 2.157-.168 3.034-.504.877-.336 1.529-.798 1.957-1.383a3.185 3.185 0 00.643-1.92c0-.705-.206-1.317-.62-1.841-.413-.525-1.094-.966-2.042-1.323-.61-.235-1.954-.597-4.037-1.093-2.084-.496-3.545-.96-4.378-1.4-1.083-.56-1.89-1.256-2.421-2.088a5.074 5.074 0 01-.798-2.79c0-1.13.325-2.19.974-3.172.649-.983 1.6-1.731 2.846-2.242 1.247-.51 2.635-.765 4.164-.765 1.681 0 3.163.266 4.448.803 1.286.536 2.271 1.322 2.964 2.363.69 1.041 1.062 2.219 1.115 3.532l-2.879.215c-.155-1.418-.677-2.488-1.57-3.21-.891-.725-2.209-1.085-3.952-1.085-1.816 0-3.14.328-3.97.986-.83.658-1.244 1.45-1.244 2.378 0 .806.293 1.467.883 1.99.578.518 2.086 1.052 4.525 1.597 2.438.545 4.114 1.024 5.02 1.43 1.32.603 2.295 1.362 2.926 2.285.628.922.945 1.986.945 3.19 0 1.191-.346 2.316-1.036 3.372-.693 1.055-1.684 1.876-2.978 2.462-1.294.585-2.753.878-4.372.878-2.054 0-3.774-.295-5.162-.887-1.388-.592-2.476-1.482-3.266-2.668-.795-1.192-1.212-2.534-1.253-4.033zm20.928 7.202V11.229h3.002v22.419h-3.002zm17.641-8.793v-2.63l9.61-.014v8.32c-1.476 1.162-2.996 2.035-4.566 2.62a13.686 13.686 0 01-4.827.88c-2.227 0-4.252-.474-6.074-1.416s-3.195-2.305-4.123-4.092c-.927-1.783-1.393-3.778-1.393-5.979 0-2.18.46-4.22 1.385-6.11.924-1.89 2.25-3.294 3.984-4.213 1.734-.92 3.73-1.377 5.99-1.377 1.64 0 3.121.263 4.448.788 1.326.525 2.365 1.256 3.119 2.195.754.94 1.326 2.16 1.716 3.671l-2.708.734c-.34-1.142-.763-2.038-1.268-2.69-.504-.653-1.226-1.175-2.165-1.57-.94-.391-1.98-.588-3.125-.588-1.373 0-2.559.206-3.56.62-1 .412-1.807.957-2.42 1.63a7.758 7.758 0 00-1.432 2.218c-.578 1.386-.866 2.891-.866 4.512 0 1.998.35 3.671 1.045 5.017.695 1.346 1.71 2.346 3.04 2.998a9.51 9.51 0 004.24.98c1.3 0 2.567-.246 3.806-.742 1.238-.496 2.177-1.02 2.816-1.583v-4.176h-6.672v-.003z" fill="#242424" stroke="#242424" stroke-width="1.65" stroke-miterlimit="10"/></svg>
